icons/Yaru-remix-dark/scalable/actions/window-symbolic.svg

<?xml version="1.0" encoding="UTF-8" standalone="no"?>
<svg
   xmlns:dc="http://purl.org/dc/elements/1.1/"
   xmlns:cc="http://creativecommons.org/ns#"
   xmlns:rdf="http://www.w3.org/1999/02/22-rdf-syntax-ns#"
   xmlns:svg="http://www.w3.org/2000/svg"
   xmlns="http://www.w3.org/2000/svg"
   xmlns:sodipodi="http://sodipodi.sourceforge.net/DTD/sodipodi-0.dtd"
   xmlns:inkscape="http://www.inkscape.org/namespaces/inkscape"
   height="16"
   width="16"
   version="1.1"
   id="svg8"
   sodipodi:docname="window-symbolic.svg"
   inkscape:version="1.0.1 (3bc2e813f5, 2020-09-07)">
  <metadata
     id="metadata14">
    <rdf:RDF>
      <cc:Work
         rdf:about="">
        <dc:format>image/svg+xml</dc:format>
        <dc:type
           rdf:resource="http://purl.org/dc/dcmitype/StillImage" />
        <dc:title></dc:title>
      </cc:Work>
    </rdf:RDF>
  </metadata>
  <defs
     id="defs12">
    <marker
       inkscape:stockid="Arrow1Lstart"
       orient="auto"
       refY="0.0"
       refX="0.0"
       id="Arrow1Lstart"
       style="overflow:visible"
       inkscape:isstock="true">
      <path
         id="path823"
         d="M 0.0,0.0 L 5.0,-5.0 L -12.5,0.0 L 5.0,5.0 L 0.0,0.0 z "
         style="fill-rule:evenodd;stroke:#000000;stroke-width:1.0pt"
         transform="scale(0.8) translate(12.5,0)" />
    </marker>
  </defs>
  <sodipodi:namedview
     pagecolor="#ffffff"
     bordercolor="#666666"
     borderopacity="1"
     objecttolerance="10"
     gridtolerance="10"
     guidetolerance="10"
     inkscape:pageopacity="0"
     inkscape:pageshadow="2"
     inkscape:window-width="1920"
     inkscape:window-height="1011"
     id="namedview10"
     showgrid="true"
     inkscape:snap-global="true"
     showguides="true"
     inkscape:guide-bbox="true"
     inkscape:zoom="32.000001"
     inkscape:cx="12.840483"
     inkscape:cy="7.0693208"
     inkscape:window-x="0"
     inkscape:window-y="0"
     inkscape:window-maximized="1"
     inkscape:current-layer="svg8"
     showborder="true"
     inkscape:document-rotation="0">
    <inkscape:grid
       type="xygrid"
       id="grid3353" />
  </sodipodi:namedview>
  <g
     color="#000"
     fill="gray"
     id="g6">
    <path
       id="path5525-3"
       style="color:#000000;font-style:normal;font-variant:normal;font-weight:normal;font-stretch:normal;font-size:medium;line-height:normal;font-family:sans-serif;text-indent:0;text-align:start;text-decoration:none;text-decoration-line:none;text-decoration-style:solid;text-decoration-color:#000000;letter-spacing:normal;word-spacing:normal;text-transform:none;writing-mode:lr-tb;direction:ltr;baseline-shift:baseline;text-anchor:start;white-space:normal;clip-rule:nonzero;display:inline;overflow:visible;visibility:visible;isolation:auto;mix-blend-mode:normal;color-interpolation:sRGB;color-interpolation-filters:linearRGB;solid-color:#000000;solid-opacity:1;fill:#808080;fill-opacity:1;fill-rule:nonzero;stroke:none;stroke-width:4.00079;stroke-linecap:butt;stroke-linejoin:miter;stroke-miterlimit:4;stroke-dasharray:none;stroke-dashoffset:0;stroke-opacity:1;marker:none;color-rendering:auto;image-rendering:auto;shape-rendering:auto;text-rendering:auto;enable-background:accumulate"
       d="M 3.9492188 1 C 2.7050526 1.01457 1.7951413 0.9694457 1.0507812 1.3847656 C 0.6786064 1.5924156 0.38549025 1.9441555 0.22265625 2.3828125 C 0.05977925 2.8214735 0 3.34239 0 4 L 0 8 L 0 13 C 0 13.65761 0.05982125 14.178513 0.22265625 14.617188 C 0.38548025 15.055843 0.6786064 15.407574 1.0507812 15.615234 C 1.7951412 16.0306 2.7050428 15.9855 3.9492188 16 L 3.953125 16 L 5.9335938 16 L 7 16 L 9 16 L 10.066406 16 L 12.046875 16 L 12.050781 16 C 13.294957 15.9855 14.204859 16.0306 14.949219 15.615234 C 15.321394 15.407574 15.61452 15.055843 15.777344 14.617188 C 15.94018 14.178513 16 13.65761 16 13 L 16 8 L 16 4 C 16 3.34239 15.940221 2.8214735 15.777344 2.3828125 C 15.61451 1.9441555 15.321394 1.5924156 14.949219 1.3847656 C 14.204859 0.96944572 13.294947 1.01457 12.050781 1 L 12.046875 1 L 10.066406 1 L 9 1 L 7 1 L 5.9335938 1 L 3.953125 1 L 3.9492188 1 z M 1.1132812 4 L 5.9335938 4 L 7 4 L 9 4 L 10.066406 4 L 14.886719 4 C 14.974529 6.323039 15.010878 9.876828 15.011719 12 C 15.011719 13 15.218612 14.328181 14.246094 14.775391 C 13.512176 15.01562 12.044113 15 10.066406 15 L 9 15 L 7 15 L 5.9335938 15 C 3.9558868 15 2.4878243 15.015624 1.7539062 14.775391 C 0.7813884 14.328181 0.98828125 13 0.98828125 12 C 0.98912225 9.876828 1.0254714 6.323039 1.1132812 4 z " />
  </g>
</svg>

<svg xmlns="http://www.w3.org/2000/svg" height="16" width="16">
    <path style="line-height:normal;text-indent:0;text-align:start;text-decoration-line:none;text-decoration-style:solid;text-decoration-color:#000;text-transform:none;white-space:normal;isolation:auto;mix-blend-mode:normal;solid-color:#000;solid-opacity:1;marker:none" d="M3.95 1c-1.245.015-2.155-.03-2.9.385-.371.207-.665.56-.827.998C.06 2.82 0 3.343 0 4v9c0 .658.06 1.179.223 1.617.162.439.456.79.828.998.744.416 1.654.37 2.898.385h8.102c1.244-.014 2.154.03 2.898-.385.372-.207.666-.56.828-.998.163-.438.223-.96.223-1.617V4c0-.658-.06-1.179-.223-1.617a1.873 1.873 0 00-.828-.998c-.744-.416-1.654-.37-2.898-.385H3.949zM1.112 4H14.886c.089 2.323.125 5.877.126 8 0 1 .207 2.328-.766 2.775-.734.24-2.202.225-4.18.225H5.934c-1.978 0-3.446.016-4.18-.225C.78 14.328.988 13 .988 12c.001-2.123.037-5.677.125-8z" font-weight="400" font-family="sans-serif" overflow="visible" color="#000" fill="gray"/>
</svg>
